localPackages/DesignSystem/Sources/DesignSystem/Resources/Assets.xcassets/IconSet/ic-pin-slash-filled.imageset/ic-pin-slash-filled.svg

<svg width="24" height="24" viewBox="0 0 24 24" fill="none" xmlns="http://www.w3.org/2000/svg">
<g id="ic-pin-slash-filled">
<g id="Icon">
<path d="M15.7554 5.99071L15.5403 4.79265C15.5069 4.60605 15.5635 4.4146 15.6932 4.27629L17.3524 2.50646C17.7116 2.12326 17.4399 1.49609 16.9147 1.49609L7.08455 1.49609C6.55928 1.49609 6.28757 2.12326 6.64683 2.50646L8.30605 4.27629C8.43571 4.4146 8.49238 4.60605 8.45889 4.79265L6.99591 12.9436C6.95935 13.1473 6.82229 13.3172 6.63582 13.407C5.80614 13.8066 3.52017 15.0878 3.07524 17.2504C2.99177 17.6561 3.33541 17.9961 3.74963 17.9961L15.7554 5.99071Z" fill="#0F0F0F"/>
<path d="M2.7361 21.131C2.45589 21.4248 2.4601 21.8901 2.74872 22.1787C3.04162 22.4716 3.51649 22.4716 3.80938 22.1787L7.99203 17.9961L11.2496 17.9961V23.2461C11.2496 23.6603 11.5854 23.9961 11.9996 23.9961C12.4138 23.9961 12.7496 23.6603 12.7496 23.2461L12.7496 17.9961L20.2496 17.9961C20.6638 17.9961 21.0075 17.6561 20.924 17.2504C20.4791 15.0878 18.1931 13.8066 17.3634 13.407C17.177 13.3172 17.0399 13.1473 17.0033 12.9436L16.4009 9.58721L21.8406 4.14752C22.1335 3.85462 22.1335 3.37975 21.8406 3.08686C21.552 2.7983 21.0868 2.79403 20.7931 3.07405C20.7889 3.0784 20.7847 3.0827 20.7804 3.08697L2.74922 21.1182C2.74489 21.1225 2.74051 21.1268 2.7361 21.131Z" fill="#0F0F0F"/>
</g>
</g>
</svg>

<svg xmlns="http://www.w3.org/2000/svg" width="24" height="24" viewBox="0 0 24 24">
  <g class="ic-pin-slash-filled">
    <g class="Icon">
      <path d="m15.754 5.99-.215-1.197a.6.6 0 0 1 .152-.517l1.66-1.77a.6.6 0 0 0-.438-1.01h-9.83a.6.6 0 0 0-.438 1.01l1.66 1.77a.6.6 0 0 1 .152.517l-1.463 8.15a.645.645 0 0 1-.36.464c-.83.4-3.116 1.68-3.56 3.843-.084.406.26.746.674.746L15.754 5.991Z"/>
      <path d="M2.734 21.131a.75.75 0 0 0 1.074 1.048l4.182-4.183h3.258v5.25a.75.75 0 0 0 1.5 0v-5.25h7.5c.414 0 .758-.34.674-.746-.445-2.162-2.73-3.443-3.56-3.843a.645.645 0 0 1-.36-.463l-.603-3.357 5.44-5.44a.75.75 0 0 0-1.06-1.06L2.748 21.118a.878.878 0 0 1-.014.013Z"/>
    </g>
  </g>
</svg>
